fs/task_list_square_person_20_filled.svg

<svg viewBox="0 0 20 20" fill="none" xmlns="http://www.w3.org/2000/svg" height="1em" width="1em">
  <path d="M3 6C3 4.34315 4.34315 3 6 3H14C15.6569 3 17 4.34315 17 6V9.40135C16.5587 9.14609 16.0464 9 15.5 9C13.8431 9 12.5 10.3431 12.5 12H11C10.7239 12 10.5 12.2239 10.5 12.5C10.5 12.7761 10.7239 13 11 13H12.6707C12.804 13.377 13.0104 13.7194 13.273 14.0102C11.9987 14.1248 11 15.1958 11 16.5C11 16.6669 11.0126 16.8341 11.0381 17H6C4.34315 17 3 15.6569 3 14V6ZM9.35355 7.10356C9.54881 6.9083 9.54882 6.59172 9.35357 6.39646C9.15831 6.20119 8.84173 6.20118 8.64646 6.39644L7.23436 7.80847L6.8372 7.44572C6.6333 7.2595 6.31704 7.27382 6.13081 7.47772C5.94459 7.68162 5.95891 7.99788 6.16281 8.1841L6.91281 8.8691C7.11021 9.04939 7.41451 9.04251 7.60355 8.85347L9.35355 7.10356ZM9.35357 11.3965C9.15831 11.2012 8.84173 11.2012 8.64646 11.3964L7.23436 12.8085L6.8372 12.4457C6.6333 12.2595 6.31704 12.2738 6.13081 12.4777C5.94459 12.6816 5.95891 12.9979 6.16281 13.1841L6.91281 13.8691C7.11021 14.0494 7.41451 14.0425 7.60355 13.8535L9.35355 12.1036C9.54881 11.9083 9.54882 11.5917 9.35357 11.3965ZM10.5 7.5C10.5 7.77614 10.7239 8 11 8H13.5C13.7761 8 14 7.77614 14 7.5C14 7.22386 13.7761 7 13.5 7H11C10.7239 7 10.5 7.22386 10.5 7.5ZM17.5 12C17.5 13.1046 16.6046 14 15.5 14C14.3954 14 13.5 13.1046 13.5 12C13.5 10.8954 14.3954 10 15.5 10C16.6046 10 17.5 10.8954 17.5 12ZM19 16.5C19 17.7452 18 19 15.5 19C13 19 12 17.7499 12 16.5C12 15.6716 12.6716 15 13.5 15H17.5C18.3284 15 19 15.6716 19 16.5Z" fill="#212121"/>
</svg>

<svg viewBox="0 0 20 20" fill="none" xmlns="http://www.w3.org/2000/svg" height="1em" width="1em">
  <path d="M3 6a3 3 0 0 1 3-3h8a3 3 0 0 1 3 3v3.401A3 3 0 0 0 12.5 12H11a.5.5 0 0 0 0 1h1.67a3 3 0 0 0 .603 1.01A2.5 2.5 0 0 0 11 16.5c0 .167.013.334.038.5H6a3 3 0 0 1-3-3V6Zm6.354 1.104a.5.5 0 0 0-.708-.708L7.234 7.808l-.397-.362a.5.5 0 0 0-.674.738l.75.685a.5.5 0 0 0 .69-.016l1.75-1.75Zm0 4.292a.5.5 0 0 0-.708 0l-1.412 1.412-.397-.362a.5.5 0 0 0-.674.738l.75.685a.5.5 0 0 0 .69-.015l1.75-1.75a.5.5 0 0 0 0-.707ZM10.5 7.5a.5.5 0 0 0 .5.5h2.5a.5.5 0 0 0 0-1H11a.5.5 0 0 0-.5.5Zm7 4.5a2 2 0 1 1-4 0 2 2 0 0 1 4 0Zm1.5 4.5c0 1.245-1 2.5-3.5 2.5S12 17.75 12 16.5a1.5 1.5 0 0 1 1.5-1.5h4a1.5 1.5 0 0 1 1.5 1.5Z" fill="#212121"/>
</svg>
